public/img/Logo.svg

<svg width="119" height="24" viewBox="0 0 119 24" fill="none" xmlns="http://www.w3.org/2000/svg">
<path d="M34.1647 22.7353L35.2676 19.4265H42.1L43.2029 22.7353H48.5021L42.1269 5H35.3752L29 22.7353H34.1647ZM37.4733 12.8618L38.6838 8.41471L39.8943 12.8618L40.755 15.4559H36.6125L37.4733 12.8618Z" fill="#2C2321"/>
<path d="M54.0385 22.7353V16.1441C54.0385 14.0265 55.0607 12.9941 56.1636 12.9941C56.9437 12.9941 57.2665 13.4971 57.2665 14.2382C57.2665 15.0324 56.7285 16.0382 56.2443 16.5941H60.6827C61.0593 15.9324 61.5973 14.5824 61.5973 12.9941C61.5973 10.8235 60.7365 9.39412 58.4231 9.39412C55.7063 9.39412 54.442 11.8294 54.0385 14.0794V9.65882H49.1966V22.7353H54.0385Z" fill="#2C2321"/>
<path d="M69.1266 23C72.0855 23 74.3989 21.4912 75.3403 19.4794L71.5744 17.0441C71.1978 18.3941 70.4985 19.0559 69.3418 19.0559C68.0775 19.0559 67.136 18.1824 67.136 16.1971C67.136 14.2118 68.0775 13.3382 69.3418 13.3382C70.4716 13.3382 71.1978 14 71.5744 15.35L75.3403 12.9147C74.3989 10.9029 72.0855 9.39412 69.1266 9.39412C64.8765 9.39412 62.2134 12.3059 62.2134 16.1971C62.2134 20.0882 64.8765 23 69.1266 23Z" fill="#2C2321"/>
<path d="M81.3845 22.7353V15.6147C81.3845 13.4971 81.7342 12.9941 83.133 12.9941C84.5856 12.9941 84.8814 13.8412 84.8814 15.4294V22.7353H89.7233V13.5765C89.7233 10.9029 88.217 9.39412 85.7422 9.39412C82.9716 9.39412 81.7611 11.3794 81.3845 13.55V5H76.5426V22.7353H81.3845Z" fill="#2C2321"/>
<path d="M98.3158 23C101.355 23 103.104 21.7294 104.126 20.4324L101.194 17.6794C100.683 18.8176 99.7146 19.1882 98.3965 19.1882C97.0515 19.1882 96.0025 18.7382 95.7066 17.4676H104.234C104.314 17.15 104.368 16.1706 104.368 15.5353C104.368 12.3853 102.405 9.39412 97.8585 9.39412C93.7967 9.39412 91.2144 12.2265 91.2144 16.1971C91.2144 20.1676 93.7429 23 98.3158 23ZM97.8854 12.9412C99.338 12.9412 99.9567 13.6824 100.037 15.0059H95.6259C95.7335 13.6294 96.5674 12.9412 97.8854 12.9412Z" fill="#2C2321"/>
<path d="M112.948 23C115.987 23 117.736 21.7294 118.758 20.4324L115.826 17.6794C115.315 18.8176 114.346 19.1882 113.028 19.1882C111.683 19.1882 110.634 18.7382 110.338 17.4676H118.865C118.946 17.15 119 16.1706 119 15.5353C119 12.3853 117.036 9.39412 112.49 9.39412C108.429 9.39412 105.846 12.2265 105.846 16.1971C105.846 20.1676 108.375 23 112.948 23ZM112.517 12.9412C113.97 12.9412 114.588 13.6824 114.669 15.0059H110.258C110.365 13.6294 111.199 12.9412 112.517 12.9412Z" fill="#2C2321"/>
<path d="M19.8225 23.3625H4.1775C3.26839 23.3585 2.39776 22.9951 1.75562 22.3515C1.11348 21.708 0.751972 20.8366 0.75 19.9275V8.31745C0.753756 7.70201 0.922797 7.09887 1.23945 6.57112C1.5561 6.04337 2.00873 5.61039 2.55 5.31745L10.3575 1.04995C10.8603 0.776224 11.4237 0.632813 11.9962 0.632812C12.5688 0.632812 13.1322 0.776224 13.635 1.04995L21.465 5.29495C22.0063 5.58789 22.4589 6.02087 22.7756 6.54862C23.0922 7.07637 23.2612 7.67951 23.265 8.29496V19.9275C23.263 20.8392 22.8994 21.7129 22.2541 22.3568C21.6087 23.0008 20.7342 23.3625 19.8225 23.3625ZM12 2.12995C11.6779 2.12948 11.3609 2.20939 11.0775 2.36245L3.2475 6.61495C2.9438 6.78315 2.69094 7.02996 2.51543 7.3295C2.33993 7.62905 2.24825 7.97029 2.25 8.31745V19.9275C2.25 20.4406 2.45387 20.9328 2.81675 21.2957C3.17963 21.6586 3.67181 21.8625 4.185 21.8625H19.8225C20.3344 21.8605 20.8246 21.6557 21.1859 21.2931C21.5472 20.9304 21.75 20.4394 21.75 19.9275V8.31745C21.7503 7.96878 21.6563 7.62651 21.4781 7.32682C21.2999 7.02714 21.044 6.78118 20.7375 6.61495L12.9225 2.36995C12.6398 2.21428 12.3227 2.13178 12 2.12995V2.12995Z" fill="#D6680F"/>
<path d="M21.1048 5.95489L13.2823 1.70989C12.8887 1.49589 12.4478 1.38379 11.9998 1.38379C11.5518 1.38379 11.1109 1.49589 10.7173 1.70989L2.89477 5.95489C2.4713 6.18686 2.11823 6.52874 1.87273 6.94451C1.62723 7.36027 1.49838 7.83455 1.49977 8.31739V19.9274C1.49977 20.6395 1.78265 21.3224 2.28619 21.826C2.78972 22.3295 3.47266 22.6124 4.18477 22.6124H19.8223C20.5331 22.6104 21.2141 22.3266 21.716 21.8233C22.2179 21.32 22.4998 20.6382 22.4998 19.9274V8.31739C22.5012 7.83455 22.3723 7.36027 22.1268 6.94451C21.8813 6.52874 21.5282 6.18686 21.1048 5.95489V5.95489ZM16.4173 16.4549C16.2182 17.4804 15.6685 18.4046 14.8625 19.0692C14.0565 19.7337 13.0444 20.0972 11.9998 20.0972C10.9551 20.0972 9.94305 19.7337 9.13706 19.0692C8.33106 18.4046 7.78138 17.4804 7.58227 16.4549C7.56595 16.3474 7.5732 16.2376 7.60351 16.1332C7.63383 16.0288 7.68648 15.9322 7.75782 15.8502C7.82916 15.7682 7.91749 15.7026 8.01668 15.6581C8.11587 15.6136 8.22355 15.5912 8.33227 15.5924V15.5924C8.51094 15.5898 8.68467 15.6511 8.82217 15.7652C8.95967 15.8793 9.05191 16.0388 9.08227 16.2149C9.22352 16.8891 9.59247 17.4941 10.1272 17.9284C10.6618 18.3627 11.3297 18.5997 12.0185 18.5997C12.7073 18.5997 13.3752 18.3627 13.9099 17.9284C14.4446 17.4941 14.8135 16.8891 14.9548 16.2149C14.9851 16.0388 15.0774 15.8793 15.2149 15.7652C15.3524 15.6511 15.5261 15.5898 15.7048 15.5924C15.8081 15.5968 15.9094 15.6225 16.0024 15.668C16.0953 15.7135 16.1778 15.7777 16.2447 15.8566C16.3116 15.9355 16.3615 16.0273 16.3912 16.1264C16.4209 16.2255 16.4298 16.3297 16.4173 16.4324V16.4549Z" fill="#D6680F"/>
</svg>

<svg width="119" height="24" fill="none" xmlns="http://www.w3.org/2000/svg"><path d="M34.165 22.735l1.103-3.308H42.1l1.103 3.308h5.3L42.126 5h-6.752L29 22.735h5.165zm3.308-9.873l1.21-4.447 1.211 4.447.861 2.594h-4.143l.861-2.594zm16.565 9.873v-6.59c0-2.118 1.023-3.15 2.126-3.15.78 0 1.102.502 1.102 1.243 0 .794-.538 1.8-1.022 2.356h4.439c.376-.662.914-2.012.914-3.6 0-2.17-.86-3.6-3.174-3.6-2.717 0-3.981 2.435-4.385 4.685V9.66h-4.841v13.076h4.841zM69.127 23c2.959 0 5.272-1.509 6.213-3.52l-3.766-2.436c-.376 1.35-1.075 2.012-2.232 2.012-1.264 0-2.206-.874-2.206-2.859 0-1.985.942-2.859 2.206-2.859 1.13 0 1.856.662 2.232 2.012l3.766-2.435c-.941-2.012-3.255-3.52-6.213-3.52-4.25 0-6.914 2.91-6.914 6.802 0 3.891 2.663 6.803 6.914 6.803zm12.258-.265v-7.12c0-2.118.35-2.62 1.748-2.62 1.453 0 1.748.846 1.748 2.434v7.306h4.842v-9.159c0-2.673-1.506-4.182-3.98-4.182-2.771 0-3.982 1.985-4.358 4.156V5h-4.842v17.735h4.841zM98.316 23c3.039 0 4.788-1.27 5.81-2.568l-2.932-2.753c-.511 1.139-1.48 1.51-2.797 1.51-1.346 0-2.395-.45-2.69-1.721h8.527c.08-.318.134-1.297.134-1.933 0-3.15-1.963-6.14-6.51-6.14-4.061 0-6.644 2.832-6.644 6.802 0 3.97 2.529 6.803 7.102 6.803zm-.43-10.059c1.452 0 2.07.741 2.151 2.065h-4.411c.108-1.377.941-2.065 2.26-2.065zM112.948 23c3.039 0 4.788-1.27 5.81-2.568l-2.932-2.753c-.511 1.139-1.48 1.51-2.798 1.51-1.345 0-2.394-.45-2.69-1.721h8.527c.081-.318.135-1.297.135-1.933 0-3.15-1.964-6.14-6.51-6.14-4.061 0-6.644 2.832-6.644 6.802 0 3.97 2.529 6.803 7.102 6.803zm-.431-10.059c1.453 0 2.071.741 2.152 2.065h-4.411c.107-1.377.941-2.065 2.259-2.065z" fill="#2C2321"/><path d="M19.823 23.363H4.177A3.443 3.443 0 01.75 19.927V8.317a3.435 3.435 0 011.8-3l7.808-4.267a3.427 3.427 0 013.277 0l7.83 4.245a3.435 3.435 0 011.8 3v11.632a3.443 3.443 0 01-3.442 3.436zM12 2.13c-.322 0-.64.08-.922.232l-7.83 4.253a1.935 1.935 0 00-.998 1.702v11.61a1.935 1.935 0 001.935 1.936h15.638a1.935 1.935 0 001.927-1.936V8.317a1.935 1.935 0 00-1.012-1.702L12.922 2.37A1.935 1.935 0 0012 2.13z" fill="#D6680F"/><path d="M21.105 5.955L13.282 1.71a2.685 2.685 0 00-2.565 0L2.895 5.955A2.685 2.685 0 001.5 8.317v11.61a2.685 2.685 0 002.685 2.685h15.637a2.685 2.685 0 002.678-2.685V8.317a2.685 2.685 0 00-1.395-2.362zm-4.688 10.5a4.5 4.5 0 01-8.835 0 .75.75 0 01.75-.863.75.75 0 01.75.623 3 3 0 005.873 0 .75.75 0 01.75-.623.75.75 0 01.712.84v.023z" fill="#D6680F"/></svg>
